!!!!SEGMENT: pl-kk--kk-i-2--006-003_anonim--missa-iii-credo.krn
!!!cenid: 16xx:1605
!!!COM: Anonim
!!!COM-rismID: pe30004985
!!!CDT:
!!!CNT:
!!!OPR: Missa III
!!!OTL: Credo
!!!OMV: 003
!!!PDT:
!!!AGN: Sacred; Mass
!!!SMS-siglum: PL-Kk
!!!SMS-shelfmark: Kk.I.2
!!!SMS-shelfwork: 006-003 M
!!!NIFC-rismSourceID: 300258016
!!!NIFC-rismChildID: 300258022
!!!NIFC-islandoraID: pl-kk:750
!!!URL-pdf-islandora: https://repozytorium.nifc.pl/islandora/object/pl-kk%3A750/datastream/PDF/view
!!!URL-scan: https://polish.musicsources.pl/pl/lokalizacje/galeria/rekopisy/5828 @EN{Scan on Polish Music Sources Website} @PL{Skany w portalu Dziedzictwo Muzyki Polskiej w otwartym dostępie}
!!!IIIF: https://repozytorium.nifc.pl/islandora/object/pl-kk%3A750/datastream/IIIF/view
!!!ONB-nifc: Części mszy: Kyrie, Gloria, Credo, Sanctus, Agnus Dei; skany: C: 0016-0017; A: 0116-0118; T: 0220-0221; B: 0319-0320;
!!!AIN: 1 alto 1 bass 1 soprn 1 tenor
!!!key: F:lyd
**kern	**text	**kern	**text	**kern	**text	**kern	**text
*group1	*	*group1	*	*group1	*	*group1	*
*part4	*part4	*part3	*part3	*part2	*part2	*part1	*part1
*staff4	*staff4	*staff3	*staff3	*staff2	*staff2	*staff1	*staff1
*I"BASSVS	*	*I"TENOR	*	*I"ALTVS	*	*I"DISCANTVS	*
*I'[B]	*	*I'[T]	*	*I'[A]	*	*I'[S]	*
*Ibass	*	*Itenor	*	*Ialto	*	*Isoprn	*
*ICvox	*	*ICvox	*	*ICvox	*	*ICvox	*
*clefC4	*	*clefC3	*	*clefC3	*	*clefG2	*
*k[b-]	*	*k[b-]	*	*k[b-]	*	*k[b-]	*
*F:lyd	*	*F:lyd	*	*F:lyd	*	*F:lyd	*
*M2/1	*	*M2/1	*	*M2/1	*	*M2/1	*
*met(C|)	*	*met(C|)	*	*met(C|)	*	*met(C|)	*
=1-	=1-	=1-	=1-	=1-	=1-	=1-	=1-
*xywh-#319:7850,2112,5704,1183	*	*xywh-#220:1504,2224,5988,951	*	*xywh-#116:7835,2710,6084,1071	*	*xywh-#16:1527,2128,6042,1031	*
!LO:TX:a:t=11.	!	!	!	!LO:TX:t=P:problem=kreska pseudotaktowa	!	!	!
00r	.	00r	.	1r	.	1f	Pa-
.	.	.	.	1c	Pa-	2cc\	-trem
!	!	!	!	!	!	!LO:TX:t=P:problem=kreska pseudotaktowa	!
.	.	.	.	.	.	2cc\	om-
=2-	=2-	=2-	=2-	=2-	=2-	=2	=2
.	.	.	.	2f\	-trem	2cc\	-ni-
.	.	.	.	1f	om-	2cc\	-po-
.	.	.	.	.	.	1dd	-ten-
!	!	!	!	!LO:TX:t=P:problem=kreska pseudotaktowa	!	!	!
.	.	.	.	2d\	-ni-	.	.
=3-	=3-	=3-	=3-	=3	=3	=3-	=3-
!	!	!	!	!	!	!LO:TX:t=P:problem=kreska pseudotaktowa	!
00r	.	2r	.	2e\	-po-	0cc	-tem
!	!	!LO:TX:t=P:problem=kreska pseudotaktowa	!	!	!	!	!
.	.	2F/	fac-	2f\	-ten-	.	.
.	.	2c/	-to-	2e\	-te(m)	.	.
!	!	!	!	!LO:TX:t=P:problem=kreska pseudotaktowa	!	!	!
.	.	2A/	-rem	2c/	fac-	.	.
=4-	=4-	=4-	=4-	=4-	=4-	=4	=4
.	.	2B-/	coe-	2f\	-to-	2r	.
!	!	!LO:TX:t=P:problem=kreska pseudotaktowa	!	!	!	!	!
.	.	2c/	-li	2e\	-re(m)	2cc/	fac-
.	.	2d/	et	2d/	coe-	2ff\	-to-
!	!	!	!	!LO:TX:t=P:problem=kreska pseudotaktowa	!	!LO:TX:t=P:problem=kreska pseudotaktowa	!
.	.	2A/	ter-	2c/	-li	2ee\	-rem
=5-	=5-	=5-	=5-	=5	=5	=5	=5
0r	.	2B-/	.	2d/	et	1dd	coe-
.	.	4F/	.	2.f\	te-	.	.
!	!	!LO:TX:t=P:problem=kreska pseudotaktowa	!	!	!	!	!
.	.	4G/	.	.	.	.	.
.	.	4A/	.	.	.	2cc/	-li
.	.	4B-/	.	4e/	.	.	.
.	.	2c/	.	4e/	.	2.cc/	et
.	.	.	.	8d/	.	.	.
!	!	!	!	!LO:TX:t=P:problem=kreska pseudotaktowa	!	!	!
.	.	.	.	8c/	.	.	.
=6-	=6-	=6-	=6-	=6	=6	=6-	=6-
!LO:TX:t=P:problem=kreska pseudotaktowa	!	!	!	!	!	!	!
1r	.	2G/	-re	2d/	-rae	.	.
.	.	.	.	.	.	8b-/	ter-
.	.	.	.	.	.	8a/	.
!	!	!LO:TX:t=P:problem=kreska pseudotaktowa	!	!	!	!LO:TX:t=P:problem=kreska pseudotaktowa	!
.	.	2G/	vi-	2d/	vi-	2b-/	-re
1C	Vi-	2.c/	-ſi-	2e/	-ſi-	2cc/	vi-
!	!	!	!	!LO:TX:t=P:problem=kreska pseudotaktowa	!	!	!
.	.	.	.	2e/	-bi-	2cc/	-ſi-
.	.	4c/	-bi-	.	.	.	.
*	*	*	*	*custos:f	*	*	*
!	!	!	!	!LO:LB:g=original	!	!	!
=7-	=7-	=7-	=7-	=7-	=7-	=7-	=7-
*	*	*	*	*xywh-#116:7824,3532,6152,1559	*	*	*
2.F/	-ſi-	2c/	-li-	2.f\	-l(i-	2.cc/	-bi-
!	!	!LO:TX:t=P:problem=kreska pseudotaktowa	!	!	!	!	!
.	.	2c/	-um	.	.	.	.
!LO:TX:t=P:problem=kreska pseudotaktowa	!	!	!	!LO:TX:t=P:problem=kreska pseudotaktowa	!	!LO:TX:t=P:problem=kreska pseudotaktowa	!
4F/	-bi-	.	.	4f\	-u)m	4b-/	-li-
2F/	-li-	2d/	om-	2f\	om-	2a/	-um
!	!	!	!	!	!	!LO:TX:t=P:problem=kreska pseudotaktowa	!
2G/	-um	2d/	-ni-	2d/	-ni-	2b-/	om-
*	*	*	*	*	*	*custos:a	*
!	!	!	!	!	!	!LO:LB:g=original	!
=8-	=8-	=8-	=8-	=8-	=8-	=8	=8
*	*	*	*	*	*	*xywh-#16:1498,2901,5901,1008	*
!	!	!LO:TX:t=P:problem=kreska pseudotaktowa	!	!	!	!	!
2A/	om-	1c	-um	1.f	-u(m)	2a/	-ni-
!LO:TX:t=P:problem=kreska pseudotaktowa	!	!	!	!	!	!	!
2F/	-ni-	.	.	.	.	2a/	-um
2c\	-u(m)	1r	.	.	.	2.g/	et
!	!	!	!	!LO:TX:t=P:problem=kreska pseudotaktowa	!	!	!
2c\	et	.	.	2e\	et	.	.
!	!	!	!	!	!	!LO:TX:t=P:problem=kreska pseudotaktowa	!
.	.	.	.	.	.	4a/	in
=9-	=9-	=9-	=9-	=9	=9	=9	=9
2B-\	in-	2r	.	2d/	in	2b-/	vi-
*	*	*custos:f	*	*	*	*	*
!	!	!LO:LB:g=original	!	!	!	!	!
*	*	*xywh-#220:1394,2888,6303,1012	*	*	*	*	*
!LO:TX:t=P:problem=kreska pseudotaktowa	!	!	!	!	!	!	!
2A\	-vi-	1f	et	2c/	.	2cc\	-ſi-
1G	-ſi-	.	.	2d/	.	2b-/	-bi-
!	!	!LO:TX:t=P:problem=kreska pseudotaktowa	!	!LO:TX:t=P:problem=kreska pseudotaktowa	!	!LO:TX:t=P:problem=kreska pseudotaktowa	!
.	.	2e\	in	2B-/	.	2g/	-li-
=10-	=10-	=10	=10	=10	=10	=10-	=10-
1F	-bi-	2.f\	vi-	2c/	vi-	4a/	.
.	.	.	.	.	.	4b-/	.
.	.	.	.	2c/	-ſi-	4cc\	.
.	.	4e\	-ſi-	.	.	4a/	.
2G/	-li-	2d/	-bi-	2g\	-bi-	2b-/	.
!	!	!	!	!LO:TX:t=P:problem=kreska pseudotaktowa	!	!	!
2A/	-u(m)	2c/	-li-	2f\	-li-	1cc\	.
=11-	=11-	=11-	=11-	=11	=11	=11-	=11-
!LO:TX:t=P:problem=kreska pseudotaktowa	!	!LO:TX:t=P:problem=kreska pseudotaktowa	!	!	!	!	!
1G	.	1d	-um	1g	.	.	.
!	!	!	!	!	!	!LO:TX:t=P:problem=kreska pseudotaktowa	!
!	!	!	!	!	!	!LO:SIC:v:s:t=2bn/	!
.	.	.	.	.	.	2b-/	-um
2r	.	2c,>/	.	2e,>\	-u(m)	2cc\	Et
1F/	Et	1f\	Et	1a\	Et	1cc\	in
=12-	=12-	=12-	=12-	=12-	=12-	=12-	=12-
.	.	.	.	.	.	.	.
!LO:TX:t=P:problem=kreska pseudotaktowa	!	!LO:TX:t=P:problem=kreska pseudotaktowa	!	!LO:TX:t=P:problem=kreska pseudotaktowa	!	!LO:TX:t=P:problem=kreska pseudotaktowa	!
2F/	in	2f\	in	2a\	i(n)	2cc\	u-
2F/	u-	2.f\	u-	2a\	u-	2cc\	-num
2F/	-nu(m)	.	.	2a\	-(nu)m	2cc\	do-
.	.	4e\	-num	.	.	.	.
*custos:G	*	*	*	*	*	*	*
!LO:LB:g=original	!	!	!	!	!	!	!
=13-	=13-	=13-	=13-	=13-	=13-	=13-	=13-
*xywh-#319:7666,2892,6313,1128	*	*	*	*	*	*	*
2G/	do-	2d/	do-	2.g\	do-	2b-/	-mi-
!LO:TX:t=P:problem=kreska pseudotaktowa	!	!LO:TX:t=P:problem=kreska pseudotaktowa	!	!	!	!LO:TX:t=P:problem=kreska pseudotaktowa	!
2G/	-mi-	2d/	-mi-	.	.	2b-/	-num
!	!	!	!	!LO:TX:t=P:problem=kreska pseudotaktowa	!	!	!
.	.	.	.	4f\	-mi-	.	.
2A/	-nu(m)	2c/	-num	2e\	-nu(m)	2a/	Je-
2D/	Je-	2A/	Je-	2f\	Je-	2dd\	-ſu
=14-	=14-	=14-	=14-	=14-	=14-	=14-	=14-
2A/	-ſu(m)	2c/	-su(m)	2e\	-ſu	2cc\	Chri-
!	!	!LO:TX:t=P:problem=kreska pseudotaktowa	!	!	!	!	!
2B-\	Chr(i)-	2d\	Chri-	2d/	Chr(i)-	2b-/	.
!LO:TX:t=P:problem=kreska pseudotaktowa	!	!	!	!LO:TX:t=P:problem=kreska pseudotaktowa	!	!LO:TX:t=P:problem=kreska pseudotaktowa	!
1F	-(stu)m	2c/	-ſtu(m)	1f	-(stu)m	1a	-ſtu(m)
.	.	1f\	fi-	.	.	.	.
*	*	*	*	*custos:d	*	*	*
!	!	!	!	!LO:PB:g=original	!	!	!
=15	=15	=15-	=15-	=15-	=15-	=15	=15
*	*	*	*	*xywh-#117:1500,411,6008,1058	*	*	*
1.B-	fi-	.	.	1.d	fi-	1.dd	fi-
!	!	!LO:TX:t=P:problem=kreska pseudotaktowa	!	!	!	!	!
.	.	2f\	-li-	.	.	.	.
.	.	2f\	-um	.	.	.	.
!	!	!	!	!LO:TX:t=P:problem=kreska pseudotaktowa	!	!	!
2B-\	-li-	2f\	De-	2d/	-li-	2dd\	-li-
=16-	=16-	=16-	=16-	=16	=16	=16-	=16-
2B-\	-u(m)	2d/	-i	2f\	-(u)m	2dd\	-um
!LO:TX:t=P:problem=kreska pseudotaktowa	!	!LO:TX:t=P:problem=kreska pseudotaktowa	!	!	!	!LO:TX:t=P:problem=kreska pseudotaktowa	!
2B-\	de-	2d/	u-	2f\	de-	2dd\	De-
*	*	*	*	*	*	*custos:b-	*
!	!	!	!	!	!	!LO:LB:g=original	!
!	!	!	!	!LO:TX:t=P:problem=kreska pseudotaktowa	!	!	!
*	*	*	*	*	*	*xywh-#16:1469,3628,6048,1330	*
2G/	-i	1e	-ni	1g	-i	2b-/	-i
2G/	u-	.	.	.	.	2b-/	u-
=17-	=17-	=17-	=17-	=17-	=17-	=17-	=17-
!	!	!LO:TX:t=P:problem=kreska pseudotaktowa	!	!	!	!	!
2A/	-ni	0c	ge-	2e\	u-	2cc\	-ni
!LO:TX:t=P:problem=kreska pseudotaktowa	!	!	!	!	!	!	!
2F/	ge-	.	.	2f\	-ni	4a/	ge-
!	!	!	!	!	!	!LO:TX:t=P:problem=kreska pseudotaktowa	!
.	.	.	.	.	.	4b-/	.
1A	-ni-	.	.	2e\	ge-	4cc\	.
.	.	.	.	.	.	4dd\	.
.	.	.	.	2f\	-ni-	1cc\	.
*	*	*custos:d	*	*	*	*	*
!	!	!LO:LB:g=original	!	!	!	!	!
=18-	=18-	=18-	=18-	=18-	=18-	=18-	=18-
*	*	*xywh-#220:1312,3641,6221,1245	*	*	*	*	*
!	!	!	!	!LO:TX:t=P:problem=kreska pseudotaktowa	!	!	!
2.G/	.	1d	-ni-	1g	-tu(m)	.	.
!	!	!	!	!	!	!LO:SIC:v:s:t=2bn/	!
.	.	.	.	.	.	2b-/	-ni-
4F/	.	.	.	.	.	.	.
!	!	!LO:TX:t=P:problem=kreska pseudotaktowa	!	!	!	!LO:TX:t=P:problem=kreska pseudotaktowa	!
2E/	.	0c	-tum	2r	.	1cc	-tum
2F/	.	.	.	2f\	et	.	.
=19-	=19-	=19-	=19-	=19-	=19-	=19	=19
!LO:TX:a:t=c.	!	!LO:TX:t=P:problem=kreska pseudotaktowa	!	!	!	!	!
!LO:TX:t=P:problem=kreska pseudotaktowa	!	!	!	!	!	!	!
1C	-tu(m)	.	.	2f\	ex	2r	.
!	!	!	!	!LO:TX:t=P:problem=kreska pseudotaktowa	!	!	!
.	.	.	.	2e\	p(a)-	2cc\	Et
1r	.	0r	.	2f\	-(t)re	2cc\	ex
!	!	!	!	!	!	!LO:TX:t=P:problem=kreska pseudotaktowa	!
.	.	.	.	2g\	na-	2b-/	pa-
=20-	=20-	=20-	=20-	=20-	=20-	=20	=20
2r	.	.	.	2.f\	-tu	2cc\	-tre
!LO:TX:t=P:problem=kreska pseudotaktowa	!	!	!	!	!	!	!
2F/	Et	.	.	.	.	2dd\	na-
!	!	!	!	!LO:TX:t=P:problem=kreska pseudotaktowa	!	!	!
.	.	.	.	4e/	an-	.	.
2F/	ex	2r	.	2c/	-te	2cc\	-tum
!	!	!LO:TX:t=P:problem=kreska pseudotaktowa	!	!	!	!LO:TX:t=P:problem=kreska pseudotaktowa	!
2E/	pa-	2c/	Et	2e\	om-	2g/	an-
=21-	=21-	=21-	=21-	=21-	=21-	=21	=21
2F/	-tre	2c/	ex	2.d/	-ni-	2a/	-te
!LO:TX:t=P:problem=kreska pseudotaktowa	!	!	!	!	!	!	!
2G/	na-	2B-/	pa-	.	.	2b-/	om-
.	.	.	.	4e/	-a	.	.
!	!	!	!	!LO:TX:t=P:problem=kreska pseudotaktowa	!	!	!
2F/	-tu(m)	2c/	-tre	1f	.	2a/	-ni-
!LO:TX:t=P:problem=kreska pseudotaktowa	!	!LO:TX:t=P:problem=kreska pseudotaktowa	!	!	!	!LO:TX:t=P:problem=kreska pseudotaktowa	!
2B-\	an-	2d/	na-	.	.	2f/	-a
*custos:A	*	*	*	*	*	*	*
!LO:LB:g=original	!	!	!	!	!	!	!
=22	=22	=22-	=22-	=22	=22	=22	=22
*xywh-#319:7666,3733,6327,1340	*	*	*	*	*	*	*
2A/	-te	2c/	-tum	1r	.	2cc\	ſe-
2F/	om-	2f\	an-	.	.	2a/	.
2.c\	-ni-	2f\	-te	2r	.	2.g/	.
!	!	!LO:TX:t=P:problem=kreska pseudotaktowa	!	!	!	!	!
.	.	2e\	om-	1g\	ſe-	.	.
!LO:TX:t=P:problem=kreska pseudotaktowa	!	!	!	!	!	!LO:TX:t=P:problem=kreska pseudotaktowa	!
4c\	-a	.	.	.	.	4a/	.
=23-	=23-	=23	=23	=23-	=23-	=23	=23
2B-/	ſe-	2d\	-ni-	.	.	2b-/	.
!	!	!	!	!LO:TX:t=P:problem=kreska pseudotaktowa	!	!	!
2A/	-cu-	2c/	-a	2f\	.	1cc	.
!LO:TX:t=P:problem=kreska pseudotaktowa	!	!	!	!	!	!	!
1G	-la	2d\	ſe-	2g\	-cu-	.	.
!	!	!	!	!	!	!LO:TX:t=P:problem=kreska pseudotaktowa	!
!	!	!	!	!	!	!LO:SIC:v:s:t=2bn/	!
.	.	2d\	-cu-	2g\	-la	2b-/	.
*	*	*	*	*	*	*custos:cc	*
!	!	!	!	!	!	!LO:PB:g=original	!
=24	=24	=24-	=24-	=24-	=24-	=24	=24
*	*	*	*	*	*	*xywh-#16:7664,544,6458,1019	*
!	!	!LO:TX:t=P:problem=kreska pseudotaktowa	!	!LO:TX:t=P:problem=kreska pseudotaktowa	!	!	!
2r	.	1c	-la	1e	.	2.cc/	.
1c	De-	.	.	.	.	.	.
.	.	.	.	.	.	4b-/	.
.	.	2r	.	00r	.	2a/	.
!LO:TX:t=P:problem=kreska pseudotaktowa	!	!	!	!	!	!LO:TX:t=P:problem=kreska pseudotaktowa	!
2B-\	-u(m)	1f\	De-	.	.	2b-/	.
=25	=25	=25-	=25-	=25-	=25-	=25	=25
2c\	de	.	.	.	.	1g	-cu-
2c\	de-	2e\	-um	.	.	.	.
!	!	!	!	!	!	!LO:TX:t=P:problem=kreska pseudotaktowa	!
2.F/	.	2f\	De	.	.	1a	-la
!	!	!LO:TX:t=P:problem=kreska pseudotaktowa	!	!	!	!	!
.	.	2f\	De-	.	.	.	.
!LO:TX:t=P:problem=kreska pseudotaktowa	!	!	!	!	!	!	!
4G/	-o	.	.	.	.	.	.
=26	=26	=26	=26	=26-	=26-	=26	=26
2A/	lu-	2c/	-o	.	.	1r	.
2F/	-men	2c/	lu-	.	.	.	.
2B-/	de	2d/	-men	2r	.	2r	.
!LO:TX:t=P:problem=kreska pseudotaktowa	!	!LO:TX:t=P:problem=kreska pseudotaktowa	!	!LO:TX:t=P:problem=kreska pseudotaktowa	!	!LO:TX:t=P:problem=kreska pseudotaktowa	!
2A/	lu-	2f\	de	2c/	de-	2a/	de-
*	*	*	*	*custos:d	*	*	*
!	!	!	!	!LO:LB:g=original	!	!	!
=27	=27	=27	=27	=27-	=27-	=27	=27
*	*	*	*	*xywh-#117:1418,1299,6202,958	*	*	*
1G	-mi-	2f\	lu-	2d/	-u(m)	2b-/	-um
!	!	!LO:TX:t=P:problem=kreska pseudotaktowa	!	!	!	!LO:TX:t=P:problem=kreska pseudotaktowa	!
.	.	2e\	-mi-	2B-/	ve-	2g/	ve-
*	*	*custos:f	*	*	*	*	*
!	!	!LO:PB:g=original	!	!	!	!	!
*	*	*xywh-#220:7703,621,6392,1033	*	*	*	*	*
!LO:TX:t=P:problem=kreska pseudotaktowa	!	!	!	!	!	!	!
0F	-ne	1f	.	2c/	-ru(m)	4a/	-rum
.	.	.	.	.	.	4g/	.
!	!	!	!	!LO:TX:t=P:problem=kreska pseudotaktowa	!	!	!
.	.	.	.	2F/	de	4a/	.
!	!	!	!	!	!	!LO:TX:t=P:problem=kreska pseudotaktowa	!
.	.	.	.	.	.	4b-/	.
=28-	=28-	=28-	=28-	=28	=28	=28-	=28-
!	!	!LO:TX:t=P:problem=kreska pseudotaktowa	!	!	!	!	!
.	.	1c	-ne	2.f\	de-	4cc\	.
.	.	.	.	.	.	4f/	de
.	.	.	.	.	.	1ff	de-
.	.	.	.	4e\	.	.	.
1r	.	0r	.	2d/	-o	.	.
!	!	!	!	!LO:TX:t=P:problem=kreska pseudotaktowa	!	!LO:TX:t=P:problem=kreska pseudotaktowa	!
.	.	.	.	2c/	.	2ee\	-o
=29-	=29-	=29-	=29-	=29-	=29-	=29-	=29-
2r	.	.	.	2f\	ve-	2dd\	ve-
!LO:TX:t=P:problem=kreska pseudotaktowa	!	!	!	!	!	!	!
2C/	Ge-	.	.	2e\	-ro	1cc	.
2F/	-ni-	2r	.	1d	.	.	.
!LO:TX:t=P:problem=kreska pseudotaktowa	!	!LO:TX:t=P:problem=kreska pseudotaktowa	!	!	!	!	!
!	!	!	!	!	!	!LO:SIC:v:s:t=2bn/	!
2G/	-tu(m)	2G/	ge-	.	.	2b-/	.
=30-	=30-	=30-	=30-	=30-	=30-	=30-	=30-
!	!	!	!	!	!	!LO:TX:t=P:problem=kreska pseudotaktowa	!
2A/	no(n)	2.c/	-ni-	1c	.	0.cc	-ro
2F/	fac-	.	.	.	.	.	.
.	.	4d/	-tum	.	.	.	.
!	!	!	!	!LO:TX:a:t=7.	!	!	!
2.c\	-tu(m)	2e/	non	00r	.	.	.
!	!	!LO:TX:t=P:problem=kreska pseudotaktowa	!	!	!	!	!
.	.	2c/	fac-	.	.	.	.
!LO:TX:t=P:problem=kreska pseudotaktowa	!	!	!	!	!	!	!
4B-\	co(n)-	.	.	.	.	.	.
=31	=31	=31-	=31-	=31-	=31-	=31-	=31-
2A/	-ſub-	2.f\	-tum	.	.	.	.
2F/	-ſta(n)-	.	.	.	.	.	.
.	.	4e\	con-	.	.	.	.
*custos:G	*	*	*	*	*	*	*
!LO:PB:g=original	!	!	!	!	!	!	!
*xywh-#320:1268,384,6163,1374	*	*	*	*	*	*	*
2G/	-ti-	2d/	-ſub-	.	.	0r	.
!LO:TX:t=P:problem=kreska pseudotaktowa	!	!LO:TX:t=P:problem=kreska pseudotaktowa	!	!	!	!	!
2A/	-a-	2c/	-ſtan-	.	.	.	.
=32	=32	=32-	=32-	=32-	=32-	=32-	=32-
2.B-/	-lem	2d/	-ci-	.	.	.	.
!	!	!LO:TX:t=P:problem=kreska pseudotaktowa	!	!	!	!	!
.	.	2f\	-a-	.	.	.	.
!LO:TX:t=P:problem=kreska pseudotaktowa	!	!	!	!	!	!	!
4A/	.	.	.	.	.	.	.
!	!	!	!	!	!	!LO:TX:t=P:problem=kreska pseudotaktowa	!
2G/	.	2e\	-lem	0r	.	1r	.
2.F/	pa-	2.d\	pa-	.	.	.	.
=33-	=33-	=33-	=33-	=33-	=33-	=33	=33
.	.	.	.	.	.	1ff	per-
4E/	.	4c/	.	.	.	.	.
4D/	.	1c	.	.	.	.	.
4C/	.	.	.	.	.	.	.
!LO:TX:t=P:problem=kreska pseudotaktowa	!	!	!	!LO:TX:t=P:problem=kreska pseudotaktowa	!	!	!
1D	.	.	.	1r	.	2ff\	-quem
!	!	!	!	!	!	!LO:TX:t=P:problem=kreska pseudotaktowa	!
.	.	2B-/	-tri	.	.	2ff\	om-
=34	=34	=34-	=34-	=34	=34	=34	=34
!	!	!LO:TX:t=P:problem=kreska pseudotaktowa	!	!	!	!	!
2C/	-tri	1c	.	1g	per-	2ee\	-ni-
2c\	p(er)-	.	.	.	.	2cc/	-a
2c\	-que(m)	0r	.	2g\	-que(m)	1ee	fa-
!LO:TX:t=P:problem=kreska pseudotaktowa	!	!	!	!LO:TX:t=P:problem=kreska pseudotaktowa	!	!	!
2G/	om-	.	.	2g\	om-	.	.
=35	=35	=35-	=35-	=35	=35	=35-	=35-
!	!	!	!	!	!	!LO:TX:t=P:problem=kreska pseudotaktowa	!
2.B-/	-ni-	.	.	2f\	-ni-	1dd	-cta
!	!	!	!	!LO:TX:t=P:problem=kreska pseudotaktowa	!	!	!
.	.	.	.	2d\	-a	.	.
4B-/	-a	.	.	.	.	.	.
*	*	*	*	*	*	*custos:cc	*
!	!	!	!	!	!	!LO:LB:g=original	!
*	*	*	*	*	*	*xywh-#16:7642,1300,6405,1019	*
!	!	!LO:TX:t=P:problem=kreska pseudotaktowa	!	!	!	!	!
2A/	fa-	1r	.	2e\	fac-	2cc\	.
!LO:TX:t=P:problem=kreska pseudotaktowa	!	!	!	!	!	!	!
2F/	.	.	.	2f\	-ta	2.cc\	.
=36	=36	=36	=36	=36-	=36-	=36-	=36-
1G	-cta	2r	.	1d	ſ(un)t	.	.
.	.	.	.	.	.	8b-/	.
.	.	.	.	.	.	8a/	.
!	!	!	!	!	!	!LO:TX:t=P:problem=kreska pseudotaktowa	!
.	.	1G	Qui	.	.	2b-/	.
!	!	!	!	!LO:TX:t=P:problem=kreska pseudotaktowa	!	!	!
2C/	ſ(un)t	.	.	1c	.	2.cc\	ſunt
!	!	!LO:TX:t=P:problem=kreska pseudotaktowa	!	!	!	!	!
1C/	Qui	2G/	pro-	.	.	.	.
.	.	.	.	.	.	4dd\	.
=37-	=37-	=37-	=37-	=37	=37	=37-	=37-
*	*	*	*	*	*	*lig	*
.	.	1.c	-pter	0r	.	1ee	.
!LO:TX:t=P:problem=kreska pseudotaktowa	!	!	!	!	!	!	!
2C/	pro-	.	.	.	.	.	.
!	!	!	!	!	!	!LO:TX:t=P:problem=kreska pseudotaktowa	!
2F/	-p(ter)	.	.	.	.	1dd	.
2G/	nos	2B-/	nos	.	.	.	.
*	*	*	*	*	*	*Xlig	*
=38-	=38-	=38-	=38-	=38-	=38-	=38	=38
2A/	ho-	2c/	ho-	2r	.	1r	.
!	!	!	!	!LO:TX:t=P:problem=kreska pseudotaktowa	!	!	!
2B-/	-mi-	2d/	-mi-	2f\	et	.	.
!LO:TX:t=P:problem=kreska pseudotaktowa	!	!LO:TX:t=P:problem=kreska pseudotaktowa	!	!	!	!	!
0F	-nes	0c	-nes	2f\	pro-	2r	.
*	*	*	*	*	*	*custos:cc	*
.	.	.	.	2c/	-pter	2cc\	et
=39-	=39-	=39-	=39-	=39-	=39-	=39	=39
*	*	*	*	*	*	*	*
!	!	!LO:TX:t=P:problem=kreska pseudotaktowa	!	!	!	!	!
.	.	.	.	2f\	n(os)-	2cc\	pro-
.	.	.	.	2f\	-(t)ra(m)	2a/	-pter
1r	.	0r	.	2e\	ſa-	2cc\	noſ-
!	!	!	!	!LO:TX:t=P:problem=kreska pseudotaktowa	!	!LO:TX:t=P:problem=kreska pseudotaktowa	!
.	.	.	.	2c/	.	2cc\	-tram
*	*	*	*	*custos:d	*	*	*
!	!	!	!	!LO:LB:g=original	!	!	!
=40-	=40-	=40-	=40-	=40-	=40-	=40	=40
*	*	*	*	*xywh-#117:1435,2051,6214,975	*	*	*
2r	.	.	.	4d/	-lu-	2b-/	ſa-
.	.	.	.	4c/	.	.	.
!LO:TX:t=P:problem=kreska pseudotaktowa	!	!	!	!	!	!	!
2D/	deſ-	.	.	4B-/	.	1a	-lu-
.	.	.	.	4A/	.	.	.
*custos:G	*	*	*	*	*	*	*
!LO:LB:g=original	!	!	!	!	!	!	!
*xywh-#320:1288,1349,6183,1067	*	*	*	*	*	*	*
!	!	!	!	!LO:TX:t=P:problem=kreska pseudotaktowa	!	!	!
1G	-cen-	2r	.	1B-	.	.	.
*	*	*custos:G	*	*	*	*	*
!	!	!LO:LB:g=original	!	!	!	!	!
*	*	*xywh-#220:7716,1552,6180,889	*	*	*	*	*
!	!	!LO:TX:t=P:problem=kreska pseudotaktowa	!	!	!	!LO:TX:t=P:problem=kreska pseudotaktowa	!
.	.	2G/	de-	.	.	2g/	-te(m)
=41-	=41-	=41	=41	=41	=41	=41-	=41-
2F/	-dit	1d	-ſcen-	2A/	-te(m)	2a/	de-
!LO:TX:t=P:problem=kreska pseudotaktowa	!	!	!	!	!	!	!
2D/	de	.	.	2f\	deſ-	2a/	-ſcen-
!	!	!	!	!	!	!LO:TX:t=P:problem=kreska pseudotaktowa	!
1A	.	2c/	-dit	2e\	-cen-	1cc	-dit
!	!	!LO:TX:t=P:problem=kreska pseudotaktowa	!	!LO:TX:t=P:problem=kreska pseudotaktowa	!	!	!
.	.	2A/	de	2f\	-dit	.	.
=42-	=42-	=42	=42	=42	=42	=42	=42
2G/	.	2B-/	coe-	2g\	de	2b-/	de
!LO:TX:t=P:problem=kreska pseudotaktowa	!	!	!	!	!	!	!
2C/	.	2c/	.	2g\	coe-	2g/	coe-
2F/	coe-	2A/	.	2c/	-lis	2a/	.
!	!	!	!	!LO:TX:t=P:problem=kreska pseudotaktowa	!	!	!
2E-X/	.	2.B-/	.	2e-X\	.	2.g/	.
=43-	=43-	=43-	=43-	=43	=43	=43-	=43-
2F/	.	.	.	2d/	.	.	.
.	.	4A/	.	.	.	4f/	.
2D/	.	4G/	.	2B-/	.	1f	.
.	.	4F/	.	.	.	.	.
1C	.	1G	-lis	1c	.	.	.
.	.	.	.	.	.	2e/	.
=44-	=44-	=44-	=44-	=44-	=44-	=44-	=44-
!LO:TX:t=P:problem=kreska pseudotaktowa	!	!	!	!LO:TX:t=P:problem=kreska pseudotaktowa	!	!	!
1F;>	-l(is)	1F;>	.	1A;>	.	1f;>	-lis
1F	Et	1c	Et	1A	Et	1f	Et
*	*	*	*	*	*	*custos:cc	*
!	!	!	!	!	!	!LO:LB:g=original	!
=45-	=45-	=45-	=45-	=45-	=45-	=45-	=45-
*	*	*	*	*	*	*xywh-#16:7660,2215,6253,967	*
2F/	in-	2f\	in-	2A/	in-	2cc\	in-
!LO:TX:t=P:problem=kreska pseudotaktowa	!	!LO:TX:t=P:problem=kreska pseudotaktowa	!	!LO:TX:t=P:problem=kreska pseudotaktowa	!	!LO:TX:t=P:problem=kreska pseudotaktowa	!
2F/	-car-	2f\	-car-	2A/	-car-	2cc\	-car-
2B-\	-na-	2.d\	-na-	2G/	-na-	2dd\	-na-
2B-\	-t(us)	.	.	2G/	-t(us)	2dd\	-tus
.	.	4e\	-tus	.	.	.	.
=46-	=46-	=46-	=46-	=46-	=46-	=46-	=46-
!	!	!LO:TX:t=P:problem=kreska pseudotaktowa	!	!	!	!	!
2F/	e(st)	1f	eſt	2A/	e(st)	2cc\	eſt
!LO:TX:t=P:problem=kreska pseudotaktowa	!	!	!	!LO:TX:t=P:problem=kreska pseudotaktowa	!	!LO:TX:t=P:problem=kreska pseudotaktowa	!
2F/	de	.	.	2f\	de	2cc\	de
2A/	ſpi-	2r	.	2e\	ſp(i)-	2cc\	ſpi-
2A/	-ri-	2c/	de	2f\	-ri-	2cc\	-ri-
=47-	=47-	=47-	=47-	=47-	=47-	=47-	=47-
2G/	-tu	2d\	ſpi-	2f\	-(tu)	2b-/	-tu
!	!	!LO:TX:t=P:problem=kreska pseudotaktowa	!	!	!	!LO:TX:t=P:problem=kreska pseudotaktowa	!
2G/	ſan-	2B-/	-ri-	2e\	ſan-	2b-/	ſan-
!LO:TX:t=P:problem=kreska pseudotaktowa	!	!	!	!LO:TX:t=P:problem=kreska pseudotaktowa	!	!	!
1F	-cto	2c/	-tu	1f	-cto	2a/	.
.	.	2d\	ſan-	.	.	1a/	-cto
*	*	*	*	*custos:c	*	*	*
!	!	!	!	!LO:LB:g=original	!	!	!
=48	=48	=48-	=48-	=48-	=48-	=48-	=48-
*	*	*	*	*xywh-#117:1406,2804,6196,975	*	*	*
2r	.	2c/	-cto	2r	.	.	.
!	!	!	!	!	!	!LO:TX:t=P:problem=kreska pseudotaktowa	!
1F	ex	1f	ex	1c	ex	2a/	ex
.	.	.	.	.	.	2.a/	Ma-
!	!	!LO:TX:t=P:problem=kreska pseudotaktowa	!	!LO:TX:t=P:problem=kreska pseudotaktowa	!	!	!
2F/	Ma-	2f\	Ma-	2c/	Ma-	.	.
.	.	.	.	.	.	4b-/	-ri-
=49-	=49-	=49-	=49-	=49	=49	=49-	=49-
2A/	-ri-	2e\	-ri-	2c/	-ri-	4cc\	-a
.	.	.	.	.	.	4dd\	vir-
!LO:TX:t=P:problem=kreska pseudotaktowa	!	!	!	!	!	!	!
2A/	-a	2c/	-a	2c/	-a	1cc	-gi-
*custos:G	*	*custos:d	*	*	*	*	*
!LO:LB:g=original	!	!LO:LB:g=original	!	!	!	!	!
*xywh-#320:1288,2081,6108,1128	*	*xywh-#220:7743,2222,6112,965	*	*	*	*	*
2G/	vir-	2d\	vir-	2g\	vir-	.	.
!	!	!	!	!	!	!LO:TX:t=P:problem=kreska pseudotaktowa	!
!	!	!	!	!	!	!LO:SIC:v:s:t=2bn/	!
2G/	-gi-	2d\	-gi-	2g\	-gi-	2b-/	-ne
=50-	=50-	=50-	=50-	=50-	=50-	=50	=50
!LO:TX:t=P:problem=kreska pseudotaktowa	!	!LO:TX:t=P:problem=kreska pseudotaktowa	!	!LO:TX:t=P:problem=kreska pseudotaktowa	!	!	!
1C	-ne	1c	-ne	1e	-ne	2cc\	.
.	.	.	.	.	.	2cc\	Et
2r	.	2r	.	2r	.	1cc	ho-
2F/	Et	2c/	Et	2f\	et	.	.
=51-	=51-	=51-	=51-	=51-	=51-	=51-	=51-
!	!	!	!	!LO:TX:t=P:problem=kreska pseudotaktowa	!	!LO:TX:t=P:problem=kreska pseudotaktowa	!
1F	ho-	1c	ho-	1f	ho-	1a	-mo
!LO:TX:t=P:problem=kreska pseudotaktowa	!	!LO:TX:t=P:problem=kreska pseudotaktowa	!	!	!	!	!
1G	-mo	1B-	-mo	2d/	-mo	1b-	fac-
.	.	.	.	1g\	fa-	.	.
=52-	=52-	=52	=52	=52-	=52-	=52-	=52-
2E/	.	1c	fac-	.	.	2g/	-tus
!	!	!	!	!LO:TX:t=P:problem=kreska pseudotaktowa	!	!	!
2A/	fa-	.	.	2f\	.	1cc	.
!LO:TX:t=P:problem=kreska pseudotaktowa	!	!	!	!	!	!	!
1G	.	1d	-tus	2.g\	.	.	.
!	!	!	!	!	!	!LO:TX:t=P:problem=kreska pseudotaktowa	!
.	.	.	.	.	.	2b-/	.
.	.	.	.	4f\	.	.	.
=53-	=53-	=53-	=53-	=53-	=53-	=53	=53
!	!	!LO:TX:t=P:problem=kreska pseudotaktowa	!	!	!	!	!
2.C/	-ctus	1c	.	4e\	.	2a/	.
.	.	.	.	4d\	.	.	.
*	*	*	*	*	*	*custos:g	*
!	!	!	!	!	!	!LO:LB:g=original	!
*	*	*	*	*	*	*xywh-#16:7648,2900,6370,1037	*
.	.	.	.	2.e\	.	2.g/	.
4D/	.	.	.	.	.	.	.
2E/	.	2B-/	.	.	.	.	.
.	.	.	.	4d/	.	4f/	.
2F/	.	2A/	.	4c/	-ctus	1f/	.
.	.	.	.	4B-/	.	.	.
=54-	=54-	=54-	=54-	=54-	=54-	=54-	=54-
1C	.	1G	.	1c	.	.	.
!	!	!	!	!	!	!LO:TX:t=P:problem=kreska pseudotaktowa	!
.	.	.	.	.	.	2e/	eſt
!LO:TX:t=P:problem=kreska pseudotaktowa	!	!LO:TX:t=P:problem=kreska pseudotaktowa	!	!LO:TX:t=P:problem=kreska pseudotaktowa	!	!	!
0.F	eſt	0F	eſt	0A	eſt	2f/,>	.
.	.	.	.	.	.	2cc\	Cru-
=55-	=55-	=55-	=55-	=55-	=55-	=55-	=55-
.	.	.	.	.	.	2cc\	-ci-
!	!	!	!	!	!	!LO:TX:t=P:problem=kreska pseudotaktowa	!
.	.	.	.	.	.	2cc\	-fi-
.	.	1r	.	2r	.	2a/	-xus
.	.	.	.	2f\	Cru-	2a/	e-
=56	=56	=56-	=56-	=56-	=56-	=56-	=56-
1r	.	2r	.	2f\	-ci-	2cc\	-ti-
!	!	!LO:TX:t=P:problem=kreska pseudotaktowa	!	!	!	!LO:TX:t=P:problem=kreska pseudotaktowa	!
.	.	2f\	Cru-	2f\	-fi-	2cc\	-am
!	!	!	!	!LO:TX:t=P:problem=kreska pseudotaktowa	!	!	!
2r	.	2f\	-ci-	1d	-xus	2.dd\	pro
!LO:TX:t=P:problem=kreska pseudotaktowa	!	!	!	!	!	!	!
2B-\	Cru-	2f\	-fi-	.	.	.	.
.	.	.	.	.	.	4cc/	no-
=57	=57	=57-	=57-	=57-	=57-	=57-	=57-
2B-\	-ci-	2.d/	-xus	00r	.	4b-/	.
.	.	.	.	.	.	4a/	.
2B-\	-fi-	.	.	.	.	2.dd\	.
!	!	!LO:TX:t=P:problem=kreska pseudotaktowa	!	!	!	!	!
.	.	4d/	e-	.	.	.	.
2G/	-xus	2d/	-ti-	.	.	.	.
.	.	.	.	.	.	4cc/	.
!LO:TX:t=P:problem=kreska pseudotaktowa	!	!	!	!	!	!	!
2G/	e-	2d/	-a(m)	.	.	4b-/	.
!	!	!	!	!	!	!LO:TX:t=P:problem=kreska pseudotaktowa	!
.	.	.	.	.	.	4a/	.
=58	=58	=58-	=58-	=58-	=58-	=58	=58
2.c\	-ti-	2e\	pro	.	.	2g/	.
!	!	!LO:TX:t=P:problem=kreska pseudotaktowa	!	!	!	!	!
.	.	2e\	no-	.	.	1cc	-bis
4B-/	-a(m)	.	.	.	.	.	.
2A/	pro	2c/	.	.	.	.	.
!LO:TX:t=P:problem=kreska pseudotaktowa	!	!	!	!	!	!LO:TX:t=P:problem=kreska pseudotaktowa	!
!	!	!	!	!	!	!LO:SIC:v:s:t=2bn/	!
2G/	.	2.d\	.	.	.	2b-/	.
=59	=59	=59-	=59-	=59-	=59-	=59	=59
!	!	!	!	!LO:TX:t=P:problem=kreska pseudotaktowa	!	!	!
2F/	.	.	.	0r	.	2cc\	ſub
.	.	4c/	.	.	.	.	.
2E/	.	1c	.	.	.	2cc\	pon-
!LO:TX:t=P:problem=kreska pseudotaktowa	!	!	!	!	!	!	!
1D	no-	.	.	.	.	2dd\	-ti-
!	!	!LO:TX:t=P:problem=kreska pseudotaktowa	!	!	!	!LO:TX:t=P:problem=kreska pseudotaktowa	!
.	.	2B-/	.	.	.	2ff\	.
*custos:C	*	*custos:c	*	*	*	*	*
!LO:LB:g=original	!	!LO:LB:g=original	!	!	!	!	!
=60-	=60-	=60-	=60-	=60	=60	=60	=60
*xywh-#320:1281,2840,6067,1162	*	*xywh-#220:7723,2989,6118,978	*	*	*	*	*
2C/	-bis	2c,>/	-bis	2r	.	4ee\	.
.	.	.	.	.	.	4dd\	.
!LO:TX:t=P:problem=kreska pseudotaktowa	!	!LO:TX:t=P:problem=kreska pseudotaktowa	!	!LO:TX:t=P:problem=kreska pseudotaktowa	!	!	!
2F/	ſub	2A/	ſub	2c/	ſub	4cc\	.
.	.	.	.	.	.	4b-\	-o
!	!	!	!	!	!	!LO:TX:t=P:problem=kreska pseudotaktowa	!
2F/	Pon-	2A/	Pon-	2c/	Pon-	2a/	.
*	*	*	*	*custos:f	*	*custos:dd	*
!	!	!	!	!LO:LB:g=original	!	!LO:LB:g=original	!
*	*	*	*	*xywh-#117:1412,3474,6202,1193	*	*xywh-#16:7648,3598,6446,1394	*
1D/	-ti-	2B-/	-ti-	1f\	-ti-	2.dd\	Pi-
=61-	=61-	=61-	=61-	=61-	=61-	=61-	=61-
.	.	2A/	-o	.	.	.	.
.	.	.	.	.	.	4cc/	-la-
!LO:TX:t=P:problem=kreska pseudotaktowa	!	!LO:TX:t=P:problem=kreska pseudotaktowa	!	!LO:TX:t=P:problem=kreska pseudotaktowa	!	!	!
2E/	-o	2G/	Pi-	2e\	-o	1cc	-to
2F/	Py-	2A/	-la-	2d/	Py-	.	.
!	!	!	!	!	!	!LO:TX:t=P:problem=kreska pseudotaktowa	!
!	!	!	!	!	!	!LO:SIC:v:s:t=2bn/	!
2G/	-la-	2B-/	.	2d/	-la-	2b-/	.
=62-	=62-	=62-	=62-	=62-	=62-	=62-	=62-
2C/	-to	2G/	.	2c/	-to	2cc,>/	.
1F	paſ-	1A	-to	1c	paſ-	1cc	paſ-
!LO:TX:t=P:problem=kreska pseudotaktowa	!	!LO:TX:t=P:problem=kreska pseudotaktowa	!	!LO:TX:t=P:problem=kreska pseudotaktowa	!	!LO:TX:t=P:problem=kreska pseudotaktowa	!
2F/	-ſus	2A/	paſ-	2c/	-ſus	2cc/	-s(us)
=63	=63	=63-	=63-	=63-	=63-	=63	=63
2F/	et	2c/	-sus	2f\	et	2a/	et
2F/	ſe-	2c/	et	2f\	ſe-	2a/	ſe-
1G	-pul-	2B-/	ſe-	2d/	-pul-	2.b-/	-pul-
!	!	!LO:TX:t=P:problem=kreska pseudotaktowa	!	!	!	!	!
.	.	2G/	-pul-	2.g\	.	.	.
!	!	!	!	!	!	!LO:TX:t=P:problem=kreska pseudotaktowa	!
.	.	.	.	.	.	4a/	-tus
=64-	=64-	=64	=64	=64-	=64-	=64	=64
2E-X/	-tus	2B-/	.	.	.	2g/	e(ſt)
.	.	.	.	4f\	.	.	.
2F/	.	2A/	.	1f	.	2.cc\	eſt
!LO:TX:t=P:problem=kreska pseudotaktowa	!	!	!	!	!	!	!
1C	eſt	1G	-tus	.	.	.	.
.	.	.	.	.	.	4b-/	.
!	!	!	!	!LO:TX:t=P:problem=kreska pseudotaktowa	!	!	!
.	.	.	.	2e\	.	2g/	.
=65	=65	=65-	=65-	=65	=65	=65-	=65-
!	!	!LO:TX:t=P:problem=kreska pseudotaktowa	!	!	!	!	!
*	*	*	*	*	*	*lig	*
2r	.	1F	est	2.f\	.	1a	.
1F	Et	.	.	.	.	.	.
.	.	.	.	4e\	-tus	.	.
!	!	!	!	!	!	!LO:TX:t=P:problem=kreska pseudotaktowa	!
.	.	2r	.	2c/	.	1g	.
2E/	re-	1c\	Et	2e\	.	.	.
*	*	*	*	*	*	*Xlig	*
=66-	=66-	=66-	=66-	=66-	=66-	=66	=66
!	!	!	!	!LO:TX:t=P:problem=kreska pseudotaktowa	!	!	!
2F/	-ſur-	.	.	1d	eſt	00r	.
!	!	!LO:TX:t=P:problem=kreska pseudotaktowa	!	!	!	!	!
2G/	-re-	2B-/	re-	.	.	.	.
2F/	-xit	2c/	-ſu-	1r	.	.	.
!LO:TX:t=P:problem=kreska pseudotaktowa	!	!	!	!	!	!	!
2D/	ter-	2d\	-re-	.	.	.	.
=67	=67	=67-	=67-	=67-	=67-	=67-	=67-
!	!	!	!	!LO:TX:t=P:problem=kreska pseudotaktowa	!	!	!
2E/	-ti-	2c/	-xit	1r	.	.	.
!	!	!LO:TX:t=P:problem=kreska pseudotaktowa	!	!	!	!	!
2F/	-a	2A/	ter-	.	.	.	.
!LO:TX:t=P:problem=kreska pseudotaktowa	!	!	!	!	!	!	!
1G	di-	2.B-/	-ci-	2r	.	.	.
.	.	.	.	2d\	ſe-	.	.
.	.	4c/	-a	.	.	.	.
=68	=68	=68-	=68-	=68-	=68-	=68-	=68-
!	!	!LO:TX:t=P:problem=kreska pseudotaktowa	!	!	!	!	!
2F/	-e	1d	di-	2f\	-cun-	2r	.
!	!	!	!	!LO:TX:t=P:problem=kreska pseudotaktowa	!	!LO:TX:t=P:problem=kreska pseudotaktowa	!
2F/	ſe-	.	.	2f\	-du(m)	2a/	ſe-
*	*	*custos:c	*	*	*	*	*
!	!	!LO:LB:g=original	!	!	!	!	!
*	*	*xywh-#220:7750,3824,6502,1533	*	*	*	*	*
!	!	!LO:TX:t=P:problem=kreska pseudotaktowa	!	!	!	!	!
2A/	-cun-	1c	-e	2e\	ſcri-	2cc\	-cun-
!LO:TX:t=P:problem=kreska pseudotaktowa	!	!	!	!	!	!	!
2A/	-du(m)	.	.	2c/	-ptu-	2cc\	-du(m)
*custos:G	*	*	*	*	*	*	*
!LO:LB:g=original	!	!	!	!	!	!	!
=69	=69	=69-	=69-	=69-	=69-	=69-	=69-
*xywh-#320:1267,3627,6300,1641	*	*	*	*	*	*	*
!	!	!LO:TX:a:t=7.	!	!	!	!	!
2G/	ſcri-	00r	.	2d\	.	2b-/	ſcri-
!	!	!	!	!	!	!LO:TX:t=P:problem=kreska pseudotaktowa	!
2F/	-ptu-	.	.	1f	.	2a/	-ptu-
1c	-ras	.	.	.	.	2g/	-ras
.	.	.	.	2e\	.	1cc\	Et
=70-	=70-	=70-	=70-	=70-	=70-	=70-	=70-
!LO:TX:t=P:problem=kreska pseudotaktowa	!	!	!	!LO:TX:t=P:problem=kreska pseudotaktowa	!	!	!
1F	.	.	.	1f	-ras	.	.
!	!	!	!	!	!	!LO:TX:t=P:problem=kreska pseudotaktowa	!
.	.	.	.	.	.	2cc\	aſ-
00r	.	.	.	2r	.	2b-/	-cen-
*	*	*	*	*custos:f	*	*	*
!	!	!	!	!LO:PB:g=original	!	!	!
*	*	*	*	*xywh-#117:7656,502,6484,999	*	*	*
.	.	.	.	1f\	et	2a/	-dit
=71-	=71-	=71-	=71-	=71-	=71-	=71-	=71-
.	.	0r	.	.	.	2cc\	in
!	!	!	!	!LO:TX:t=P:problem=kreska pseudotaktowa	!	!LO:TX:t=P:problem=kreska pseudotaktowa	!
.	.	.	.	2f\	aſ-	2dd\	coe:-
*	*	*	*	*	*	*custos:cc	*
!	!	!	!	!	!	!LO:PB:g=original	!
*	*	*	*	*	*	*xywh-#17:1481,517,5884,1101	*
.	.	.	.	2e\	-cen-	2cc/	.
.	.	.	.	2d\	-dit	2.ff\	.
=72-	=72-	=72-	=72-	=72-	=72-	=72-	=72-
!	!	!LO:TX:t=P:problem=kreska pseudotaktowa	!	!	!	!	!
.	.	1r	.	1f	in	.	.
.	.	.	.	.	.	4ee/	.
.	.	.	.	.	.	1dd	.
!LO:TX:t=P:problem=kreska pseudotaktowa	!	!	!	!LO:TX:t=P:problem=kreska pseudotaktowa	!	!	!
1r	.	2r	.	1g	coe-	.	.
.	.	2G/	ſe-	.	.	4cc/	.
!	!	!	!	!	!	!LO:TX:t=P:problem=kreska pseudotaktowa	!
.	.	.	.	.	.	4b-/	.
=73	=73	=73-	=73-	=73-	=73-	=73	=73
2r	.	2d\	-det	2f,>\	-lu(m)	2a/	-lum
!LO:TX:t=P:problem=kreska pseudotaktowa	!	!LO:TX:t=P:problem=kreska pseudotaktowa	!	!	!	!	!
2D/	ſe-	2d\	ad	2f\	ſe-	2a/	ſe-
2A/	-det	2c/	dex-	2e\	-det	2cc/	-det
!	!	!	!	!LO:TX:t=P:problem=kreska pseudotaktowa	!	!LO:TX:t=P:problem=kreska pseudotaktowa	!
2A/	ad	2A/	-te-	2c/	ad	2cc/	ad
=74-	=74-	=74-	=74-	=74-	=74-	=74	=74
2G/	dex-	2.B-/	-ram	2d/	dex-	2b-/	dex-
!LO:TX:t=P:problem=kreska pseudotaktowa	!	!	!	!	!	!	!
2G/	-te-	.	.	2e\	-te-	2b-/	-te-
!	!	!LO:TX:t=P:problem=kreska pseudotaktowa	!	!	!	!	!
.	.	4c/	pa-	.	.	.	.
2F/	-ra(m)	2d\	.	2f\	-ra(m)	1a	-ram
2A/	pa-	1c\	.	1f\	.	.	.
=75-	=75-	=75-	=75-	=75-	=75-	=75-	=75-
1G	-tris	.	.	.	.	1b-	p(at)-
!	!	!	!	!LO:TX:t=P:problem=kreska pseudotaktowa	!	!	!
.	.	2B-/	.	2e\	pa-	.	.
!LO:TX:t=P:problem=kreska pseudotaktowa	!	!LO:TX:t=P:problem=kreska pseudotaktowa	!	!	!	!LO:TX:t=P:problem=kreska pseudotaktowa	!
00F\	.	1c	-tris	2f,>\	-tris	1a	-ris
.	.	.	.	2c/	et	.	.
=76-	=76-	=76	=76	=76-	=76-	=76-	=76-
.	.	1r	.	2d/	i-	2r	.
!	!	!	!	!LO:TX:t=P:problem=kreska pseudotaktowa	!	!	!
.	.	.	.	2c/	-te-	2cc/	Et
.	.	2r	.	2A/	-ru(m)	2dd/	i-
!	!	!	!	!	!	!LO:TX:t=P:problem=kreska pseudotaktowa	!
.	.	2c/	Et	1f\	ven-	2cc/	-te-
=77-	=77-	=77-	=77-	=77-	=77-	=77	=77
.	.	2d/	i-	.	.	2a/	-rum
!	!	!LO:TX:t=P:problem=kreska pseudotaktowa	!	!	!	!	!
.	.	2c/	-te-	4e\	.	2.cc\	ven-
!	!	!	!	!LO:TX:t=P:problem=kreska pseudotaktowa	!	!	!
.	.	.	.	4d\	.	.	.
0r	.	2A/	-rum	2f\	.	.	.
.	.	.	.	.	.	4b-/	.
.	.	2c/	ven-	2e\	-tu-	1a/	-tu-
=78-	=78-	=78-	=78-	=78-	=78-	=78-	=78-
.	.	2B-/	-tu-	1d	-rus	.	.
!	!	!	!	!	!	!LO:TX:t=P:problem=kreska pseudotaktowa	!
.	.	2B-/	-rus	.	.	2g/	-rus
!	!	!LO:TX:t=P:problem=kreska pseudotaktowa	!	!LO:TX:t=P:problem=kreska pseudotaktowa	!	!	!
2r	.	1A	e(st)	1c	e(st)	2a/	eſt
!LO:TX:t=P:problem=kreska pseudotaktowa	!	!	!	!	!	!	!
2F/	cu(m)	.	.	.	.	2a/	cum
=79	=79	=79	=79	=79-	=79-	=79-	=79-
2G/	glo-	2r	.	0r	.	2b-/	glo-
!	!	!	!	!	!	!LO:TX:t=P:problem=kreska pseudotaktowa	!
2F/	-ri-	2c/	cum	.	.	2a/	-ri-
*	*	*	*	*	*	*custos:f	*
!	!	!	!	!	!	!LO:LB:g=original	!
*	*	*	*	*	*	*xywh-#17:1475,1341,6004,1028	*
2D/	-a	2d\	glo-	.	.	2.f/	-a
!	!	!LO:TX:t=P:problem=kreska pseudotaktowa	!	!	!	!	!
2.F/	iu-	2c/	-ri-	.	.	.	.
!	!	!	!	!	!	!LO:TX:t=P:problem=kreska pseudotaktowa	!
.	.	.	.	.	.	4g/	iu-
=80-	=80-	=80	=80	=80-	=80-	=80	=80
.	.	2A/	-a	2r	.	4a/	-di-
4E/	.	.	.	.	.	4b-/	.
!LO:TX:t=P:problem=kreska pseudotaktowa	!	!	!	!LO:TX:t=P:problem=kreska pseudotaktowa	!	!	!
2C/	-di-	2c/	iu-	2e\	cu(m)	1a	-ca-
2D/	-ca-	2B-/	-di-	2f\	glo-	.	.
!	!	!LO:TX:t=P:problem=kreska pseudotaktowa	!	!	!	!LO:TX:t=P:problem=kreska pseudotaktowa	!
2E/	-re	2B-/	-ca-	2e\	-ri-	2g/	-re
*	*	*custos:A	*	*custos:c	*	*	*
!	!	!LO:PB:g=original	!	!LO:LB:g=original	!	!	!
=81-	=81-	=81-	=81-	=81-	=81-	=81	=81
*	*	*xywh-#221:1496,626,5995,1047	*	*xywh-#117:7668,1331,6267,975	*	*	*
!LO:TX:t=P:problem=kreska pseudotaktowa	!	!LO:TX:t=P:problem=kreska pseudotaktowa	!	!	!	!	!
0.F	.	0A	-re	2c/	-a	2a/	.
!	!	!	!	!LO:TX:t=P:problem=kreska pseudotaktowa	!	!	!
.	.	.	.	2c/	iu-	2cc\	vi-
.	.	.	.	2.f\	-di-	2dd\	-vos
!	!	!	!	!	!	!LO:TX:t=P:problem=kreska pseudotaktowa	!
.	.	.	.	.	.	2cc\	et
.	.	.	.	8e/	-ca-	.	.
.	.	.	.	8d/	-re	.	.
=82-	=82-	=82	=82	=82-	=82-	=82-	=82-
.	.	0r	.	2c/	.	2a/	mor-
.	.	.	.	2.f\	vi-	2.dd\	.
0r	.	.	.	.	.	.	.
.	.	.	.	4e\	-vos	4cc\	.
.	.	.	.	4d/	et	1cc\	.
!	!	!	!	!LO:TX:t=P:problem=kreska pseudotaktowa	!	!	!
.	.	.	.	4c/	mor-	.	.
=83-	=83-	=83-	=83-	=83	=83	=83-	=83-
.	.	2r	.	1d	-tu-	.	.
!	!	!LO:TX:t=P:problem=kreska pseudotaktowa	!	!	!	!	!
!	!	!	!	!	!	!LO:SIC:v:s:t=2bn/	!
.	.	2G/	cu-	.	.	2b-/	-tu-
!	!	!	!	!	!	!LO:TX:t=P:problem=kreska pseudotaktowa	!
1C	Cu-	2G/	-ius	2c/	-os	1cc	-os
!	!	!	!	!LO:TX:t=P:problem=kreska pseudotaktowa	!	!	!
.	.	2G/	re-	2e\	Cu-	.	.
=84-	=84-	=84-	=84-	=84	=84	=84	=84
!	!	!LO:TX:t=P:problem=kreska pseudotaktowa	!	!	!	!	!
2C/	-ius	1c	-gni	2e\	-ius	2r	.
!LO:TX:t=P:problem=kreska pseudotaktowa	!	!	!	!LO:TX:t=P:problem=kreska pseudotaktowa	!	!	!
2C/	reg:-	.	.	2e\	re-	2cc\	cu-
*custos:F	*	*	*	*	*	*	*
!LO:PB:g=original	!	!	!	!	!	!	!
*xywh-#320:7534,629,6525,1060	*	*	*	*	*	*	*
1F	-ni	1.A	non	2f\	-gni	2cc\	-ius
!	!	!	!	!	!	!LO:TX:t=P:problem=kreska pseudotaktowa	!
.	.	.	.	2c/	n(on)	2cc\	re-
=85-	=85-	=85-	=85-	=85-	=85-	=85	=85
!LO:TX:t=P:problem=kreska pseudotaktowa	!	!	!	!	!	!	!
1D	non	.	.	1.d	e-	1ff,>	-gni
.	.	1B-	e-	.	.	.	.
!	!	!	!	!	!	!LO:TX:t=P:problem=kreska pseudotaktowa	!
1G	e-	.	.	.	.	1dd	non
!	!	!	!	!LO:TX:t=P:problem=kreska pseudotaktowa	!	!	!
.	.	2.G/	-rit	2d/	-rit	.	.
=86-	=86-	=86-	=86-	=86	=86	=86	=86
2E/	.	.	.	2c/	fi-	1ee	e-
.	.	4F/	fi-	.	.	.	.
!LO:TX:t=P:problem=kreska pseudotaktowa	!	!	!	!	!	!	!
2C/	-rit	4G/	.	2.g\	.	.	.
!	!	!LO:TX:t=P:problem=kreska pseudotaktowa	!	!	!	!	!
.	.	4A/	.	.	.	.	.
2G/	fi-	2B-/	.	.	.	2dd\	-rit
.	.	.	.	4e/	.	.	.
2A/	.	2c/	.	2f\	.	1cc\	fi-
=87-	=87-	=87-	=87-	=87-	=87-	=87-	=87-
!	!	!LO:TX:t=P:problem=kreska pseudotaktowa	!	!	!	!	!
1G	.	1d	.	1g	.	.	.
!	!	!	!	!	!	!LO:TX:t=P:problem=kreska pseudotaktowa	!
!	!	!	!	!	!	!LO:SIC:v:s:t=2bn/	!
.	.	.	.	.	.	2b-/	.
!LO:TX:t=P:problem=kreska pseudotaktowa	!	!	!	!LO:TX:t=P:problem=kreska pseudotaktowa	!	!	!
1C	-nis	0c	-nis	1e	-nis	2cc,>/	-nis
.	.	.	.	.	.	1cc\	Et
=88	=88	=88-	=88-	=88	=88	=88-	=88-
2r	.	.	.	2r	.	.	.
!	!	!	!	!	!	!LO:TX:t=P:problem=kreska pseudotaktowa	!
1F	et	.	.	1f	Et	2f/	in
*	*	*	*	*	*	*custos:cc	*
.	.	2r	.	.	.	2.cc\	ſpi-
*	*	*	*	*	*	*xywh-#17:1373,1971,6168,1244	*
!LO:TX:t=P:problem=kreska pseudotaktowa	!	!	!	!LO:TX:t=P:problem=kreska pseudotaktowa	!	!	!
2C/	in	1c\	Et	2e\	in	.	.
.	.	.	.	.	.	4cc\	-ri-
=89	=89	=89-	=89-	=89	=89	=89-	=89-
!	!	!	!	!	!	!LO:TX:t=P:problem=kreska pseudotaktowa	!
2.F/	ſpi-	.	.	2f\	ſpi-	1cc	-tum
!	!	!LO:TX:t=P:problem=kreska pseudotaktowa	!	!	!	!	!
.	.	2F/	in	2f\	-ri-	.	.
4G/	-ri-	.	.	.	.	.	.
*	*	*	*	*custos:e	*	*	*
!	!	!	!	!LO:LB:g=original	!	!	!
*	*	*	*	*xywh-#117:7657,2083,6126,1011	*	*	*
2A/	-tu(m)	2c/	ſpi-	2e\	-tu(m)	0r	.
1F/	ſan-	2d\	-ri-	2.f\	ſan-	.	.
=90-	=90-	=90-	=90-	=90-	=90-	=90-	=90-
.	.	2c/	-tum	.	.	.	.
.	.	.	.	4d/	.	.	.
!LO:TX:t=P:problem=kreska pseudotaktowa	!	!LO:TX:t=P:problem=kreska pseudotaktowa	!	!LO:TX:t=P:problem=kreska pseudotaktowa	!	!	!
2C/	-ctu(m)	2c/	ſan-	2.g\	-ctu(m)	.	.
2E/	d(o)-	4B-/	-ctum	.	.	2r	.
.	.	4A/	.	4f\	do-	.	.
!	!	!	!	!	!	!LO:TX:t=P:problem=kreska pseudotaktowa	!
2F/	-(mi)-	4G/	.	1f\	.	2cc\	Tri-
.	.	4F/	.	.	.	.	.
=91-	=91-	=91-	=91-	=91-	=91-	=91	=91
!LO:TX:t=P:problem=kreska pseudotaktowa	!	!	!	!	!	!	!
1C	-(n)um	2G/	do-	.	.	2cc\	-um-
!	!	!LO:TX:t=P:problem=kreska pseudotaktowa	!	!LO:TX:t=P:problem=kreska pseudotaktowa	!	!	!
.	.	2G/	-mi-	2e\	-mi-	2cc\	-fi-
!	!	!	!	!	!	!LO:TX:t=P:problem=kreska pseudotaktowa	!
2r	.	2F/	-nu(m)	2f,>\	-nu(m)	1a	-can-
!	!	!LO:TX:t=P:problem=kreska pseudotaktowa	!	!LO:TX:t=P:problem=kreska pseudotaktowa	!	!	!
2F/	et	2f\	et	2c/	et	.	.
*	*	*custos:f	*	*	*	*	*
!	!	!LO:LB:g=original	!	!	!	!	!
=92-	=92-	=92	=92	=92-	=92-	=92	=92
*	*	*xywh-#221:1434,1454,6098,992	*	*	*	*	*
*	*	*	*	*	*	*lig	*
2F/	vi-	2.f\	vi-	2c/	vi-	1cc	.
!LO:TX:t=P:problem=kreska pseudotaktowa	!	!	!	!	!	!	!
2F/	-vi-	.	.	2c/	-vi-	.	.
.	.	4e\	-vi-	.	.	.	.
1G	-fi-	2d\	-fi-	1g	-fi-	1b-	.
.	.	2d\	-can-	.	.	.	.
*	*	*	*	*	*	*Xlig	*
=93-	=93-	=93-	=93-	=93-	=93-	=93-	=93-
!	!	!LO:TX:t=P:problem=kreska pseudotaktowa	!	!	!	!LO:TX:t=P:problem=kreska pseudotaktowa	!
1A	-can-	1c	-tem	1e	-can-	1a	-tam
!LO:TX:t=P:problem=kreska pseudotaktowa	!	!	!	!LO:TX:t=P:problem=kreska pseudotaktowa	!	!	!
1F	-te(m)	2r	.	1f	-te(m)	2r	.
!	!	!	!	!	!	!LO:TX:t=P:problem=kreska pseudotaktowa	!
.	.	2c/	qui	.	.	2a/	qui
=94	=94	=94-	=94-	=94-	=94-	=94	=94
2r	.	2d\	ex	2r	.	2a/	ex
!	!	!LO:TX:t=P:problem=kreska pseudotaktowa	!	!	!	!LO:TX:t=P:problem=kreska pseudotaktowa	!
2D/	qui	2d\	pa-	2f\	qui	2a/	pa-
2G/	ex	2B-/	-tre	2d\	ex	2b-/	-tre
!LO:TX:t=P:problem=kreska pseudotaktowa	!	!	!	!LO:TX:t=P:problem=kreska pseudotaktowa	!	!	!
2C/	pa-	2c/	fi-	2e\	p(at)-	2g/	fi-
*custos:F	*	*	*	*	*	*	*
!LO:LB:g=original	!	!	!	!	!	!	!
=95-	=95-	=95-	=95-	=95-	=95-	=95-	=95-
*xywh-#320:7611,1457,6156,991	*	*	*	*	*	*	*
2.F/	-tre	1.A	-li-	2c/	-re	2.a/	-li-
.	.	.	.	2c/	fi-	.	.
!	!	!	!	!	!	!LO:TX:t=P:problem=kreska pseudotaktowa	!
4F/	fi-	.	.	.	.	4b-/	-o-
2F/	-li-	.	.	1f	-li-	2cc\	-q(ue)
!LO:TX:t=P:problem=kreska pseudotaktowa	!	!LO:TX:t=P:problem=kreska pseudotaktowa	!	!	!	!	!
2G/	-o-	2B-/	-o-	.	.	2b-/	pro-
=96-	=96-	=96	=96	=96-	=96-	=96-	=96-
2A/	-q(ue)	2c/	-q(ue)	2e\	-o-	1.a	-ce-
2F/	pro-	2.d\	pro-	2.f\	-q(ue)	.	.
1A	-ce-	.	.	.	.	.	.
.	.	4c/	-ce-	4e\	.	.	.
.	.	1c\	-dit	4d\	pro-	2f/	-dit
!	!	!	!	!LO:TX:t=P:problem=kreska pseudotaktowa	!	!	!
.	.	.	.	4c\	.	.	.
=97-	=97-	=97-	=97-	=97	=97	=97-	=97-
!LO:TX:t=P:problem=kreska pseudotaktowa	!	!	!	!	!	!LO:TX:t=P:problem=kreska pseudotaktowa	!
1G	-dit	.	.	1d	-ce-	0g	.
!	!	!LO:TX:t=P:problem=kreska pseudotaktowa	!	!	!	!	!
.	.	2B-/	.	.	.	.	.
2r	.	2c,>/	.	2c/	-dit	.	.
!	!	!	!	!LO:TX:t=P:problem=kreska pseudotaktowa	!	!	!
2C/	qui	2G/	qui	2e\	qui	.	.
*	*	*	*	*custos:e	*	*	*
!	!	!	!	!LO:LB:g=original	!	!	!
=98-	=98-	=98-	=98-	=98	=98	=98	=98
*	*	*	*	*xywh-#117:7810,2871,6020,934	*	*	*
2C/	cu(m)	2G/	cu(m)	2e\	cu(m)	2r	.
!LO:TX:t=P:problem=kreska pseudotaktowa	!	!LO:TX:t=P:problem=kreska pseudotaktowa	!	!	!	!LO:TX:t=P:problem=kreska pseudotaktowa	!
2C/	p(at)-	2G/	pa-	2e\	p(at)-	2cc\	qui
2.F/	-re	2A/	-tre	2f\	-re(m)	2cc\	cum
!	!	!	!	!LO:TX:t=P:problem=kreska pseudotaktowa	!	!LO:TX:t=P:problem=kreska pseudotaktowa	!
.	.	2c/	et	2c/	et	2cc\	pa-
4E/	et	.	.	.	.	.	.
*	*	*	*	*	*	*custos:ff	*
!	!	!	!	!	!	!LO:LB:g=original	!
=99-	=99-	=99-	=99-	=99	=99	=99	=99
*	*	*	*	*	*	*xywh-#17:1305,2960,6140,931	*
2D/	fi-	2c/	fi-	2d/	fi-	1.ff	-tre
!LO:TX:t=P:problem=kreska pseudotaktowa	!	!LO:TX:t=P:problem=kreska pseudotaktowa	!	!	!	!	!
2D/	-li-	2B-/	-li-	2d/	-li-	.	.
4C/	-o	2c,>/	-o	2G/	-o	.	.
4D/	.	.	.	.	.	.	.
!	!	!	!	!LO:TX:t=P:problem=kreska pseudotaktowa	!	!LO:TX:t=P:problem=kreska pseudotaktowa	!
4E/	.	2G/	fi-	2g\	ſi-	2ee\	et
4F/	.	.	.	.	.	.	.
=100-	=100-	=100-	=100-	=100	=100	=100	=100
2G/	.	2B-/	-li-	2g\	-mul	2dd\	fi-
!LO:TX:t=P:problem=kreska pseudotaktowa	!	!	!	!	!	!	!
2A/	.	2c/	.	2e\	a-	2.cc\	.
!	!	!LO:TX:t=P:problem=kreska pseudotaktowa	!	!	!	!	!
2F/	.	1d	.	2f\	-do-	.	.
.	.	.	.	.	.	8b-/	.
.	.	.	.	.	.	8a/	.
!	!	!	!	!LO:TX:t=P:problem=kreska pseudotaktowa	!	!LO:TX:t=P:problem=kreska pseudotaktowa	!
!	!	!	!	!	!	!LO:SIC:v:s:t=2bn/	!
2G/	.	.	.	2d\	-ra-	2b-/	-li-
*	*	*custos:c	*	*	*	*	*
!	!	!LO:LB:g=original	!	!	!	!	!
=101-	=101-	=101	=101	=101	=101	=101	=101
*	*	*xywh-#221:1441,2221,6194,1054	*	*	*	*	*
2C/	.	2c,/	-o	2e\	.	2cc,>\	-o
!LO:TX:t=P:problem=kreska pseudotaktowa	!	!LO:TX:t=P:problem=kreska pseudotaktowa	!	!	!	!LO:TX:t=P:problem=kreska pseudotaktowa	!
2F/	ſi-	2c/	ſi-	2f\	.	2a/	ſi-
2F/	-mul	2c/	-mul	2c/	.	2a/	-mul
2F/	a-	2c/	a-	1f\	.	2a/	a-
=102-	=102-	=102-	=102-	=102-	=102-	=102-	=102-
2G/	-do-	2B-/	-do-	.	.	2b-/	-do-
!LO:TX:t=P:problem=kreska pseudotaktowa	!	!	!	!LO:TX:t=P:problem=kreska pseudotaktowa	!	!LO:TX:t=P:problem=kreska pseudotaktowa	!
2G/	-ra-	2B-/	-ra-	2e\	.	2g/	-ra-
*custos:F	*	*	*	*	*	*	*
!LO:LB:g=original	!	!	!	!	!	!	!
*xywh-#320:7653,2237,6259,1060	*	*	*	*	*	*	*
2F/	-tur	2c/	-tur	2f,>\	-tur	2a/	-tur
1F/	et	1A/	et	2c/	et	1a/	et
=103-	=103-	=103-	=103-	=103-	=103-	=103-	=103-
.	.	.	.	2c/	co(n)-	.	.
!LO:TX:t=P:problem=kreska pseudotaktowa	!	!LO:TX:t=P:problem=kreska pseudotaktowa	!	!LO:TX:t=P:problem=kreska pseudotaktowa	!	!LO:TX:t=P:problem=kreska pseudotaktowa	!
2F/	con-	2A/	con-	2d/	-glo-	2a/	con-
!	!	!	!	!LO:SIC:v:s:t=2e-X\	!	!	!
2E-X/	-glo-	2B-/	-glo-	2e\	-ri-	2g/	-glo-
2F/	-ri-	2A/	-ri-	2.c/	-fi-	2f/	-ri-
=104-	=104-	=104-	=104-	=104-	=104-	=104-	=104-
2C/	-fi-	2G/	-fi-	.	.	2f/	-fi-
.	.	.	.	4B-/	-ca-	.	.
!	!	!LO:TX:t=P:problem=kreska pseudotaktowa	!	!	!	!LO:TX:t=P:problem=kreska pseudotaktowa	!
2C/	-ca-	2G/	-ca-	2G/	.	2e/	-ca-
!LO:TX:t=P:problem=kreska pseudotaktowa	!	!	!	!LO:TX:t=P:problem=kreska pseudotaktowa	!	!	!
1F	-tur	2F/	-tur	0A	-tur	2.f/	.
.	.	1c\	eui	.	.	.	.
.	.	.	.	.	.	4g/	.
=105	=105	=105-	=105-	=105-	=105-	=105-	=105-
!	!	!	!	!LO:TX:t=P:problem=kreska pseudotaktowa	!	!LO:TX:t=P:problem=kreska pseudotaktowa	!
2r	.	.	.	.	.	0a	-tur
!	!	!LO:TX:t=P:problem=kreska pseudotaktowa	!	!	!	!	!
1F	Qui	2c/	lo-	.	.	.	.
.	.	2A/	-cu-	0r	.	.	.
!LO:TX:t=P:problem=kreska pseudotaktowa	!	!	!	!	!	!	!
2F/	lo-	1d\	-tus	.	.	.	.
=106	=106	=106-	=106-	=106-	=106-	=106-	=106-
2D/	-cu-	.	.	.	.	0r	.
2G/	-tus	4c/	.	.	.	.	.
!	!	!LO:TX:t=P:problem=kreska pseudotaktowa	!	!	!	!	!
.	.	4B-/	.	.	.	.	.
!	!	!	!	!LO:TX:t=P:problem=kreska pseudotaktowa	!	!	!
2F/	e(st)	2A/	e(st)	1r	.	.	.
!LO:TX:t=P:problem=kreska pseudotaktowa	!	!	!	!	!	!	!
2D/	per	2B-/	per	.	.	.	.
=107	=107	=107-	=107-	=107-	=107-	=107-	=107-
!	!	!	!	!	!	!LO:TX:t=P:problem=kreska pseudotaktowa	!
2E/	p(ro)-	2G/	pro-	1c	Et	1r	.
2F/	-phe-	2.c/	-phe-	.	.	.	.
1D	-tas	.	.	2d/	u-	1f	Et
.	.	4B-/	.	.	.	.	.
!	!	!	!	!LO:TX:t=P:problem=kreska pseudotaktowa	!	!	!
.	.	4B-/	.	2d/	-na(m)	.	.
!	!	!LO:TX:t=P:problem=kreska pseudotaktowa	!	!	!	!	!
.	.	4A/	.	.	.	.	.
*	*	*	*	*custos:e	*	*	*
!	!	!	!	!LO:LB:g=original	!	!	!
=108-	=108-	=108	=108	=108-	=108-	=108-	=108-
*	*	*	*	*xywh-#117:7786,3547,6073,1211	*	*	*
!LO:TX:t=P:problem=kreska pseudotaktowa	!	!	!	!	!	!	!
1C	.	1c	.	1e	ſan-	2g/	u-
.	.	.	.	.	.	2g/	-na(m)
!	!	!LO:TX:t=P:problem=kreska pseudotaktowa	!	!	!	!LO:TX:t=P:problem=kreska pseudotaktowa	!
00r	.	1F	-tas	2c/	-cta(m)	1a	ſan-
!	!	!	!	!LO:TX:t=P:problem=kreska pseudotaktowa	!	!	!
.	.	.	.	2d\	.	.	.
*	*	*	*	*	*	*custos:f	*
!	!	!	!	!	!	!LO:LB:g=original	!
=109-	=109-	=109	=109	=109	=109	=109-	=109-
*	*	*	*	*	*	*xywh-#17:1265,3590,6123,1368	*
!	!	!LO:TX:a:t=4.	!	!	!	!	!
.	.	00r	.	4d\	Ca-	2f/	-ctam
.	.	.	.	4c\	-to-	.	.
.	.	.	.	4B-/	.	2.b-/	Ca-
.	.	.	.	4A/	.	.	.
.	.	.	.	2G/	.	.	.
.	.	.	.	.	.	4a/	-tho-
.	.	.	.	2A/	.	1a/	-li-
=110-	=110-	=110-	=110-	=110-	=110-	=110-	=110-
!	!	!	!	!LO:TX:t=P:problem=kreska pseudotaktowa	!	!	!
.	.	.	.	1B-	-li-	.	.
!	!	!	!	!	!	!LO:TX:t=P:problem=kreska pseudotaktowa	!
.	.	.	.	.	.	2g/	-ca(m)
2r	.	.	.	2A,>/	-ca(m)	2a,>/	.
!LO:TX:t=P:problem=kreska pseudotaktowa	!	!	!	!LO:TX:t=P:problem=kreska pseudotaktowa	!	!	!
2F/	et	.	.	2c/	et	2a/	et
*	*	*custos:c	*	*	*	*	*
!	!	!LO:LB:g=original	!	!	!	!	!
=111	=111	=111-	=111-	=111	=111	=111-	=111-
*	*	*xywh-#221:1448,2974,6112,1019	*	*	*	*	*
2F/	a-	2r	.	2f\	a-	2a/	a-
!	!	!LO:TX:t=P:problem=kreska pseudotaktowa	!	!	!	!LO:TX:t=P:problem=kreska pseudotaktowa	!
2F/	-po-	2c/	et	2f\	-po-	2a/	-po-
2C/	-ſto-	2c/	a-	2e\	-ſto-	2g/	-ſto-
!	!	!	!	!LO:TX:t=P:problem=kreska pseudotaktowa	!	!	!
2C/	-li-	2c/	-po-	2e\	-li-	2g/	-li-
=112-	=112-	=112-	=112-	=112	=112	=112-	=112-
1.F	-ca(m)	2.A/	-ſto-	2c/	-ca(m)	2a/	-cam
.	.	.	.	2c/	ec-	4f/	ec-
!	!	!LO:TX:t=P:problem=kreska pseudotaktowa	!	!	!	!LO:TX:t=P:problem=kreska pseudotaktowa	!
.	.	4B-/	-li-	.	.	4g/	-cle-
.	.	2c/	-cam	1.f	-cl(e)-	4a/	.
.	.	.	.	.	.	4f/	.
!LO:TX:t=P:problem=kreska pseudotaktowa	!	!	!	!	!	!	!
2D/	ec-	2d\	ec-	.	.	2.b-/	.
=113	=113	=113-	=113-	=113-	=113-	=113-	=113-
1F	-cle-	2c/	-cle-	.	.	.	.
.	.	.	.	.	.	4a/	.
!	!	!LO:TX:t=P:problem=kreska pseudotaktowa	!	!	!	!	!
.	.	2A/	-ſi-	2f\	-(si)-	1a	-si-
!LO:TX:t=P:problem=kreska pseudotaktowa	!	!	!	!LO:TX:t=P:problem=kreska pseudotaktowa	!	!	!
1G	-ſi-	1B-	-am	1d	-am	.	.
.	.	.	.	.	.	2g/	-am
*custos:D	*	*	*	*	*	*	*
!LO:LB:g=original	!	!	!	!	!	!	!
=114	=114	=114-	=114-	=114	=114	=114-	=114-
*xywh-#320:7557,2901,6430,1094	*	*	*	*	*	*	*
!	!	!LO:TX:t=P:problem=kreska pseudotaktowa	!	!	!	!LO:TX:t=P:problem=kreska pseudotaktowa	!
1D	-am	1A	.	2r	.	0.a	.
.	.	.	.	2d/	Con-	.	.
2r	.	1r	.	2d/	-fi-	.	.
!LO:TX:t=P:problem=kreska pseudotaktowa	!	!	!	!LO:TX:t=P:problem=kreska pseudotaktowa	!	!	!
2D/	Con-	.	.	2d/	-te-	.	.
=115	=115	=115-	=115-	=115	=115	=115-	=115-
2D/	-fi-	2r	.	1.f	-or	.	.
!	!	!LO:TX:t=P:problem=kreska pseudotaktowa	!	!	!	!	!
2D/	-te-	2A/	Con-	.	.	.	.
2.F/	-or	2A/	-fi-	.	.	0r	.
.	.	2A/	-te-	2f\	u-	.	.
!LO:TX:t=P:problem=kreska pseudotaktowa	!	!	!	!	!	!	!
4G/	u-	.	.	.	.	.	.
=116	=116	=116-	=116-	=116-	=116-	=116-	=116-
2A/	-(nu)m	2.c/	-or	2e\	-nu(m)	.	.
!	!	!	!	!LO:TX:t=P:problem=kreska pseudotaktowa	!	!	!
2F/	bap-	.	.	2f\	bap-	.	.
!	!	!LO:TX:t=P:problem=kreska pseudotaktowa	!	!	!	!	!
.	.	4c/	u-	.	.	.	.
1A	-tiſ-	2c/	-num	2e\	-tiſ:-	2r	.
!	!	!	!	!	!	!LO:TX:t=P:problem=kreska pseudotaktowa	!
.	.	2c/	bap-	2f\	.	2cc\	in
=117-	=117-	=117-	=117-	=117-	=117-	=117	=117
!LO:TX:t=P:problem=kreska pseudotaktowa	!	!	!	!LO:TX:t=P:problem=kreska pseudotaktowa	!	!	!
1G	-ma	1d	-tiſ-	1g	.	2cc\	re-
.	.	.	.	.	.	2b-/	-mi-
*	*	*	*	*custos:e	*	*	*
!	!	!	!	!LO:PB:g=original	!	!	!
*	*	*	*	*xywh-#118:1666,485,5913,1068	*	*	*
!	!	!LO:TX:t=P:problem=kreska pseudotaktowa	!	!	!	!	!
2r	.	1c	-ma	2.e\	.	2a/	-ſsi-
!	!	!	!	!	!	!LO:TX:t=P:problem=kreska pseudotaktowa	!
2c\	in	.	.	.	.	2g/	-o-
.	.	.	.	4f\	.	.	.
=118-	=118-	=118	=118	=118-	=118-	=118	=118
2c\	re-	2r	.	1d	-ma	2a/	-nem
!LO:TX:t=P:problem=kreska pseudotaktowa	!	!	!	!	!	!	!
2B-\	-mi-	2f\	in	.	.	2b-/	pec:-
*	*	*	*	*	*	*custos:cc	*
!	!	!	!	!	!	!LO:PB:g=original	!
*	*	*	*	*	*	*xywh-#17:7683,541,6401,1033	*
!	!	!	!	!LO:TX:t=P:problem=kreska pseudotaktowa	!	!	!
2A/	-ſſi-	2.f\	re-	1c	.	2cc/	-ca-
!	!	!	!	!	!	!LO:TX:t=P:problem=kreska pseudotaktowa	!
2F/	-o-	.	.	.	.	2a/	-to-
!	!	!LO:TX:t=P:problem=kreska pseudotaktowa	!	!	!	!	!
.	.	4e\	-mi-	.	.	.	.
=119-	=119-	=119-	=119-	=119	=119	=119	=119
2G/	-nem	2d\	-ſsi-	0r	.	2b-/	.
!LO:TX:t=P:problem=kreska pseudotaktowa	!	!	!	!	!	!	!
2A/	pec-	2c/	-o-	.	.	2a/	.
2B-\	-ca-	2d\	-nem	.	.	2f/	.
2G/	-to-	2B-/	pec-	.	.	2.b-/	.
=120-	=120-	=120-	=120-	=120-	=120-	=120-	=120-
*lig	*	*	*	*	*	*	*
!	!	!LO:TX:t=P:problem=kreska pseudotaktowa	!	!	!	!	!
1A	.	1c	-ca-	2r	.	.	.
.	.	.	.	.	.	4a/	.
.	.	.	.	1f	et	1a	.
*	*	*custos:d	*	*	*	*	*
!	!	!LO:LB:g=original	!	!	!	!	!
*	*	*xywh-#221:1448,3871,6228,1464	*	*	*	*	*
1B-	.	1d	-to-	.	.	.	.
!	!	!	!	!LO:TX:t=P:problem=kreska pseudotaktowa	!	!LO:TX:t=P:problem=kreska pseudotaktowa	!
.	.	.	.	2d/	ex-	2g/	.
*Xlig	*	*	*	*	*	*	*
=121-	=121-	=121-	=121-	=121	=121	=121	=121
*	*	*	*	*lig	*	*	*
2A/	-ru(m)	2c/	-rum	1f	-pec-	2a/	-rum
!LO:TX:t=P:problem=kreska pseudotaktowa	!	!LO:TX:t=P:problem=kreska pseudotaktowa	!	!	!	!	!
2F/	et	2A/	Et	.	.	1dd	Et
2G/	ex-	2B-/	ex-	1e	.	.	.
!	!	!	!	!	!	!LO:TX:t=P:problem=kreska pseudotaktowa	!
2A/	-pec-	2c/	-pec-	.	.	2cc/	ex-
*	*	*	*	*Xlig	*	*	*
=122-	=122-	=122-	=122-	=122-	=122-	=122	=122
!LO:TX:t=P:problem=kreska pseudotaktowa	!	!	!	!LO:TX:t=P:problem=kreska pseudotaktowa	!	!	!
1D	-to	2A/	-to	1d	-to	1ff	-pec-
.	.	1d	.	.	.	.	.
!	!	!	!	!	!	!LO:TX:t=P:problem=kreska pseudotaktowa	!
2r	.	.	.	1r	.	1ee	-to
!	!	!LO:TX:t=P:problem=kreska pseudotaktowa	!	!	!	!	!
2A/	re-	2c/	.	.	.	.	.
=123-	=123-	=123	=123	=123-	=123-	=123	=123
2.B-/	-ſur-	1d	.	1f	re-	2r	.
.	.	.	.	.	.	2dd\	re-
!LO:TX:t=P:problem=kreska pseudotaktowa	!	!	!	!	!	!	!
4B-/	-re-	.	.	.	.	.	.
*custos:B-	*	*	*	*	*	*	*
!LO:LB:g=original	!	!	!	!	!	!	!
*xywh-#320:7674,3721,6279,1135	*	*	*	*	*	*	*
2B-/	-cti-	2r	.	2f\	-ſur-	2.dd\	-ſu-
!	!	!LO:TX:t=P:problem=kreska pseudotaktowa	!	!LO:TX:t=P:problem=kreska pseudotaktowa	!	!	!
2B-/	-o-	2d\	re-	2f\	-re-	.	.
!	!	!	!	!	!	!LO:TX:t=P:problem=kreska pseudotaktowa	!
.	.	.	.	.	.	4cc\	-re-
=124-	=124-	=124	=124	=124	=124	=124	=124
2G/	-nem	2d\	-ſu-	2g\	-cti-	2b-/	-cti-
!LO:TX:t=P:problem=kreska pseudotaktowa	!	!	!	!	!	!LO:TX:t=P:problem=kreska pseudotaktowa	!
2G/	mor-	2d\	-re-	2g\	-o-	2b-/	-o-
2.A/	-tu-	2.c/	-cti-	2e\	-ne(m)	2a/	-nem
!	!	!	!	!LO:TX:t=P:problem=kreska pseudotaktowa	!	!	!
.	.	.	.	2e\	mor-	2.a/	mor-
4G/	.	4B-/	-o-	.	.	.	.
=125-	=125-	=125-	=125-	=125	=125	=125-	=125-
2F/	.	2A/	-nem	2f\	-tu-	.	.
.	.	.	.	.	.	4g/	-tu-
!LO:TX:t=P:problem=kreska pseudotaktowa	!	!	!	!	!	!	!
2G/	.	1B-	mor-	2d/	-o-	2.g/	-o-
!	!	!	!	!LO:SIC:v:s:t=4e-X/	!	!	!
2E-X/	-o-	.	.	4e/	.	.	.
.	.	.	.	4d/	.	4f/	.
!	!	!LO:TX:t=P:problem=kreska pseudotaktowa	!	!	!	!	!
2F/	.	2A/	-tu-	4c/	.	1f/	.
!	!	!	!	!LO:TX:t=P:problem=kreska pseudotaktowa	!	!	!
.	.	.	.	4B-/	.	.	.
=126-	=126-	=126	=126	=126	=126	=126-	=126-
1C	.	1G	-o-	1c	.	.	.
!	!	!	!	!	!	!LO:TX:t=P:problem=kreska pseudotaktowa	!
.	.	.	.	.	.	2e/	.
!LO:TX:t=P:problem=kreska pseudotaktowa	!	!LO:TX:t=P:problem=kreska pseudotaktowa	!	!	!	!	!
1F	-ru(m)	1F	-rum	2A/	-ru(m)	2.f/	.
!	!	!	!	!LO:TX:t=P:problem=kreska pseudotaktowa	!	!	!
.	.	.	.	2c/	et	.	.
.	.	.	.	.	.	4g/	.
*	*	*	*	*	*	*custos:a	*
!	!	!	!	!	!	!LO:LB:g=original	!
=127	=127	=127	=127	=127	=127	=127-	=127-
*	*	*	*	*	*	*xywh-#17:7695,1473,5833,948	*
!	!	!	!	!	!	!LO:TX:t=P:problem=kreska pseudotaktowa	!
2r	.	2r	.	2.f\	vi-	1a	-rum
2F/	et	2c\	Et	.	.	.	.
.	.	.	.	4e\	-ta(m)	.	.
1.F	vi-	2.f\	vi-	2d\	ven-	2r	.
!	!	!	!	!LO:TX:t=P:problem=kreska pseudotaktowa	!	!LO:TX:t=P:problem=kreska pseudotaktowa	!
.	.	.	.	2c\	-tu-	2a/	Et
!	!	!LO:TX:t=P:problem=kreska pseudotaktowa	!	!	!	!	!
.	.	4e\	-tam	.	.	.	.
*	*	*	*	*custos:f	*	*	*
!	!	!	!	!LO:LB:g=original	!	!	!
=128-	=128-	=128	=128	=128	=128	=128	=128
*	*	*	*	*xywh-#118:1482,1465,6178,871	*	*	*
!	!	!	!	!LO:TX:t=P:problem=kreska pseudotaktowa	!	!	!
.	.	2d\	ven-	1f	-ri	1.a	vi-
!LO:TX:t=P:problem=kreska pseudotaktowa	!	!	!	!	!	!	!
2F/	-ta(m)	2c\	-tu-	.	.	.	.
2D/	ven-	2d\	-ris	2r	.	.	.
!	!	!LO:TX:t=P:problem=kreska pseudotaktowa	!	!	!	!LO:TX:t=P:problem=kreska pseudotaktowa	!
2D/	-tu-	2d\	ſe-	1f\	ſe-	2a/	-tam
*	*	*custos:c	*	*	*	*	*
!	!	!LO:PB:g=original	!	!	!	!	!
=129-	=129-	=129	=129	=129-	=129-	=129	=129
*	*	*xywh-#221:7799,683,6337,1026	*	*	*	*	*
2.F/	-ri	2c/	-cu-	.	.	2a/	ven-
!	!	!LO:TX:t=P:problem=kreska pseudotaktowa	!	!LO:TX:t=P:problem=kreska pseudotaktowa	!	!	!
.	.	2A/	-li	2f\	-cu-	2a/	-tu-
!LO:TX:t=P:problem=kreska pseudotaktowa	!	!	!	!	!	!	!
4G/	.	.	.	.	.	.	.
2A/	ſe-	2r	.	2e\	-li	2a/	-ri
!	!	!	!	!	!	!LO:TX:t=P:problem=kreska pseudotaktowa	!
2A/	-cu-	2.f\	ſe-	2c/	.	2a/	ſe-
=130-	=130-	=130-	=130-	=130-	=130-	=130	=130
*lig	*	*	*	*lig	*	*	*
1B-	-li	.	.	1d	A-	2f/	-cu-
.	.	4e/	-cu-	.	.	.	.
.	.	1d	-li	.	.	2g/	-li
!LO:TX:t=P:problem=kreska pseudotaktowa	!	!	!	!LO:TX:t=P:problem=kreska pseudotaktowa	!	!LO:TX:t=P:problem=kreska pseudotaktowa	!
1A	.	.	.	1e	.	1a	A-
!	!	!LO:TX:t=P:problem=kreska pseudotaktowa	!	!	!	!	!
.	.	2c/	a-	.	.	.	.
*Xlig	*	*	*	*Xlig	*	*	*
=131	=131	=131	=131	=131	=131	=131	=131
2.D/	A-	2d/	.	2d/	.	2f/	.
!	!	!	!	!	!	!LO:TX:t=P:problem=kreska pseudotaktowa	!
.	.	2d/	.	1f	.	2b-/	.
4E/	.	.	.	.	.	.	.
2F/	.	2c/	.	.	.	2a/	.
!LO:TX:t=P:problem=kreska pseudotaktowa	!	!LO:TX:t=P:problem=kreska pseudotaktowa	!	!LO:TX:t=P:problem=kreska pseudotaktowa	!	!	!
2G/	.	(<2.B-/	.	2d/	.	2.g/	.
=132	=132	=132-	=132-	=132	=132	=132-	=132-
2E/	.	.	.	4e\	.	.	.
.	.	4A/)	.	4d\	.	4f/	.
2F/	.	4G/	.	4c/	.	1f	.
!	!	!	!	!LO:TX:t=P:problem=kreska pseudotaktowa	!	!	!
.	.	4F/	-men	4B-/	.	.	.
1C	-men.	1G	.	1c	.	.	.
.	.	.	.	.	.	2e/	-men
=133-	=133-	=133-	=133-	=133-	=133-	=133-	=133-
00F\	.	00F/	.	00c\	-men	00f/	.
==	==	==	==	==	==	==	==
*-	*-	*-	*-	*-	*-	*-	*-
!!!system-decoration: [(g1)]
!!!RDF**kern: > = above
!!!RDF**kern: < = below
!!!ENC: Andrzej Gręziak
!!!END: 2022-01-05
!!!EED: Jędrzej Mróz
!!!EEV: 2022-01-06
!!!ENC-iiif: Jan Barakat
!!!END-iiif: 2022-09-03
!!!YEC: Copyright 2022 Narodowy Instytut Fryderyka Chopina (https://polishscores.org)
!!!YEM: License CC-BY-4.0 (https://creativecommons.org/licenses/by/4.0)
